X: 30252
T: Old Kildimo, The
R: reel
M: 4/4
K: Gmajor
|:B/c/dfa gedc|BGGB AFDF|B/c/dfa gedc|BGAF G2~G2|
B/c/dfa gedc|BGGB AFDF|BG~G2 AFDF|BdcA G2~G2:|
|:AF~F2 AFdF|BG~G2 BGdG|^cA~A2 cAeA|dafd AFDF|
AF~F2 AFdF|BG~G2 BGdG|^cA~A2 cAeA|dfe^c d3B:|

